sharp/svg/rounded_corner.svg

<svg xmlns="http://www.w3.org/2000/svg" width="24" height="24"><path fill="none" d="M0 0h24v24H0z"/><path d="M19 19h2v2h-2v-2zm0-2h2v-2h-2v2zM3 13h2v-2H3v2zm0 4h2v-2H3v2zm0-8h2V7H3v2zm0-4h2V3H3v2zm4 0h2V3H7v2zm8 16h2v-2h-2v2zm-4 0h2v-2h-2v2zm4 0h2v-2h-2v2zm-8 0h2v-2H7v2zm-4 0h2v-2H3v2zM21 3H11v2h8v8h2V3z" fill="currentColor"/></svg>

<?xml version="1.0" encoding="utf-8"?>
<!-- Generator: Adobe Illustrator 19.1.0, SVG Export Plug-In . SVG Version: 6.00 Build 0)  -->
<svg version="1.1" xmlns="http://www.w3.org/2000/svg" xmlns:xlink="http://www.w3.org/1999/xlink" x="0px" y="0px" width="24px"
	 height="24px" viewBox="0 0 24 24" enable-background="new 0 0 24 24" xml:space="preserve">
<g id="Bounding_Boxes">
	<g id="ui_x5F_spec_x5F_header_copy_3" display="none">
	</g>
	<rect fill="none" width="24" height="24"/>
</g>
<g id="Sharp" fill="currentColor">
	<g id="ui_x5F_spec_x5F_header_copy_4" display="none">
	</g>
	<path d="M19,19h2v2h-2V19z M19,17h2v-2h-2V17z M3,13h2v-2H3V13z M3,17h2v-2H3V17z M3,9h2V7H3V9z M3,5h2V3H3V5z M7,5h2V3H7V5z
		 M15,21h2v-2h-2V21z M11,21h2v-2h-2V21z M15,21h2v-2h-2V21z M7,21h2v-2H7V21z M3,21h2v-2H3V21z M21,3H11v2h8v8h2V3z"/>
</g>
</svg>
